assets/images/logo-uni-ue.svg

<svg fill="none" height="27" viewBox="0 0 94 27" width="94" xmlns="http://www.w3.org/2000/svg"><g fill="#001b3c"><path d="m14.7202 13.0761c-.1642.4586-.1915.9923-.0796 1.5486l.0249.1253 4.7061-2.7388c-.8059-.9723-2.2163-1.1076-3.2734-.5162-.6193.3458-1.1342.9071-1.378 1.5811z"/><path clip-rule="evenodd" d="m0 .837891h25.8089v26.000009h-25.8089zm18.2498 16.187309c.5671-.1303 1.9053-.6114 2.2734-2.3178l1.9352.3759c-.4054 1.957-1.8431 3.4404-3.7708 3.8789-.3806.0852-.7711.1303-1.1567.1303-1.5496 0-2.9972-.7141-3.8728-1.9119-.4925-.6715-.8158-1.4559-.9626-2.2552-.1667 2.4356-1.9775 4.1671-4.43498 4.1671-2.58934 0-4.46979-1.9094-4.46979-4.538v-4.99899h2.00481v4.99899c0 1.4734 1.05962 2.586 2.46498 2.586 1.39542 0 2.44758-1.1126 2.44758-2.586v-4.99899h2.0048v3.40039c.0398-.1905.092-.3759.1567-.5563.0423-.1203.092-.2406.1443-.3559.286-.6289.7114-1.1902 1.2262-1.6462.5995-.53128 1.3333-.9322 2.1118-1.11763 1.4949-.35582 3.1192.12028 4.236 1.16273.6293.5888 1.0323 1.3405 1.3332 2.1173l-6.4223 3.7387c.5148.5137 1.2511.8093 2.0296.8093.2413 0 .4826-.0275.7214-.0827z" fill-rule="evenodd"/><path d="m31.5771 9.50298v-5.11931h1.7536v5.11931c0 .92962.6641 1.62372 1.5397 1.62372.8755 0 1.5272-.6916 1.5272-1.62372v-5.11931h1.7536v5.11931c0 1.92192-1.3979 3.34022-3.2808 3.34022-1.8954 0-3.2933-1.4183-3.2933-3.34022z"/><path d="m44.9964 12.7379v-3.31761c0-1.6463-.8979-2.66114-2.3679-2.66365-.6517 0-1.2661.31072-1.587.81188v-.6916h-1.669v5.85848h1.669v-3.63836c.2388-.40593.699-.66904 1.1616-.66904.6865 0 1.1243.46608 1.1243 1.27795v3.03195z"/><path d="m47.8395 12.7379h-1.669v-5.86098h1.669z"/><path d="m48.0186 5.05271c0 .5613-.4627 1.02487-1.0174 1.02487-.5546 0-1.0198-.46608-1.0198-1.02487 0-.54876.4627-1.01484 1.0198-1.01484.5572 0 1.0174.46608 1.0174 1.01484z"/><path d="m48.5285 6.87692 2.4152 5.86098h1.4228l2.4028-5.86098h-1.8233l-1.2909 3.56828-1.3158-3.56828z"/><path clip-rule="evenodd" d="m60.5748 10.2071h-4.1813c.1542.7994.699 1.2178 1.4924 1.2178.5199 0 1.0671-.238 1.2686-.5964l1.3034.7994c-.4254.7743-1.3979 1.2278-2.6068 1.2278-1.7063 0-3.0569-1.3356-3.0569-3.07959 0-1.70644 1.3257-3.01947 3.0196-3.01947 1.5745 0 2.8083 1.22784 2.8083 2.79145 0 .20547-.0125.43099-.0473.65901zm-1.6243-1.07497c-.0721-.58385-.6044-1.01485-1.2213-1.01485-.6989 0-1.1616.38088-1.3158 1.01485z" fill-rule="evenodd"/><path d="m65.2411 8.44304.0945-1.57614c-.1766-.07267-.4154-.10775-.7114-.11026-.485 0-1.1143.31072-1.3979.81188v-.6916h-1.669v5.86098h1.669v-3.54313c.2861-.57132.8905-.88204 1.2686-.88204.2363 0 .5223.04762.7462.13031z"/><path d="m65.5023 12.1165.4974-1.1702c.5448.4059 1.2562.6214 1.9651.6214.5223 0 .8531-.2029.8531-.4761-.0048-.3501-.4869-.4607-1.0732-.5952-.9114-.209-2.0746-.4758-2.0882-1.79026-.0125-1.09753.9601-1.94448 2.3331-1.94448.8184 0 1.6342.20296 2.2163.66904l-.4751 1.21781c-.4502-.3458-1.184-.60891-1.8133-.60891-.4254 0-.7114.20297-.7114.46608.0048.32893.4828.45982 1.0678.62003.9213.25231 2.1081.57734 2.131 1.86319 0 1.085-.9477 1.8743-2.2984 1.8743-.9924-.0075-1.9053-.2455-2.6042-.7467z"/><path d="m71.3078 12.7379h1.669v-5.86098h-1.669z"/><path d="m72.1361 6.07758c.5547 0 1.0173-.46357 1.0173-1.02487 0-.54876-.4602-1.01484-1.0173-1.01484-.5572 0-1.0199.46608-1.0199 1.01484 0 .55879.4627 1.02487 1.0199 1.02487z"/><path d="m36.6837 14.8654v1.6939h-3.3281v1.5034h2.9624v1.6939h-2.9624v1.7666h3.3281v1.6939h-5.0792v-8.3517z"/><path d="m43.2229 23.2171v-5.8585h-1.669v3.6409c-.2487.4059-.7114.6565-1.1616.6565-.6865 0-1.1243-.4535-1.1243-1.2654v-3.032h-1.669v3.3051c0 1.6589.8979 2.6737 2.368 2.6737.6392 0 1.2561-.3107 1.5869-.8119v.6916z"/><path d="m48.1753 17.3461-.0945 1.5761c-.2239-.0827-.5099-.1303-.7462-.1303-.3781 0-.9826.3107-1.2686.8821v3.5431h-1.669v-5.8585h1.669v.6916c.2836-.5012.9129-.8119 1.3979-.8119.296 0 .5323.0351.7114.1078z"/><g clip-rule="evenodd" fill-rule="evenodd"><path d="m51.3268 23.3349c1.7038 0 3.0196-1.3005 3.0196-3.042s-1.3158-3.0546-3.0196-3.0546c-1.7163 0-3.0197 1.3131-3.0197 3.0546s1.3034 3.042 3.0197 3.042zm0-1.6112c-.7935 0-1.3855-.6189-1.3855-1.4308 0-.8344.592-1.4433 1.3855-1.4433.781 0 1.3854.6089 1.3854 1.4433 0 .8093-.6044 1.4308-1.3854 1.4308z"/><path d="m58.6695 17.2383c-.7338 0-1.4327.3333-1.7188.8119v-.6916h-1.669v7.793h1.669v-2.6261c.2836.4761.9825.8119 1.7188.8119 1.5173 0 2.7012-1.3606 2.7012-3.0545 0-1.6965-1.1839-3.0446-2.7012-3.0446zm-.3781 4.4879c-.7935 0-1.3855-.6214-1.3855-1.4308 0-.8344.592-1.4433 1.3855-1.4433.781 0 1.3855.6089 1.3855 1.4433 0 .8094-.6045 1.4308-1.3855 1.4308z"/><path d="m78.342 7.56852v-3.18485h1.6691v8.34923h-1.6691v-.6916c-.2835.4786-.9825.8119-1.7162.8119-1.5173 0-2.7138-1.3606-2.7138-3.05454 0-1.69391 1.1965-3.04202 2.7138-3.04202.7213 0 1.4327.33578 1.7162.81188zm-2.7361 2.24518c0 .8094.592 1.4308 1.3855 1.4308.781 0 1.3855-.6189 1.3855-1.4308 0-.83443-.6045-1.44333-1.3855-1.44333-.7935 0-1.3855.6089-1.3855 1.44333z"/><path d="m85.3067 6.87692v.6916c-.2836-.4761-.995-.81188-1.7163-.81188-1.5173 0-2.7137 1.34811-2.7137 3.04202 0 1.69394 1.1964 3.05454 2.7137 3.05454.7338 0 1.4327-.3333 1.7163-.8119v.6916h1.669v-5.85598zm-1.3482 4.36758c-.7935 0-1.3854-.6214-1.3854-1.4308 0-.83443.5919-1.44333 1.3854-1.44333.7811 0 1.3855.6089 1.3855 1.44333 0 .8119-.6044 1.4308-1.3855 1.4308z"/><path d="m92.331 7.56852v-3.18485h1.669v8.34923h-1.669v-.6916c-.2836.4786-.9825.8119-1.7163.8119-1.5173 0-2.7137-1.3606-2.7137-3.05454 0-1.69391 1.1964-3.04202 2.7137-3.04202.7213 0 1.4327.33578 1.7163.81188zm-2.7361 2.24017c0 .80941.592 1.43081 1.3854 1.43081.7836 0 1.388-.6214 1.3855-1.43081 0-.83443-.6044-1.44333-1.3855-1.44333-.7934 0-1.3854.6089-1.3854 1.44333z"/><path d="m72.8848 17.3586v.6916c-.2836-.4761-.995-.8119-1.7163-.8119-1.5173 0-2.7137 1.3481-2.7137 3.0421 0 1.6939 1.1964 3.0545 2.7137 3.0545.7338 0 1.4327-.3333 1.7163-.8119v.6916h1.669v-5.856zm-1.3507 4.3676c-.7934 0-1.3854-.6214-1.3854-1.4308 0-.8344.592-1.4433 1.3854-1.4433.7811 0 1.3855.6089 1.3855 1.4433 0 .8094-.6044 1.4308-1.3855 1.4308z"/><path d="m64.9899 21.9567c.7487 0 1.4153-.4961 1.5894-1.2178l1.3631.2982c-.306 1.3682-1.5198 2.3078-2.9525 2.3078-1.689 0-2.9699-1.303-2.9699-3.052 0-1.7491 1.2809-3.0646 2.9699-3.0646 1.3183 0 2.4003.8144 2.8007 2.0122l-1.2486.7291v-.0025l-2.6491 1.5411c.2786.2806.6617.4485 1.097.4485zm.0025-3.3452c-.9054 0-1.5795.7091-1.5795 1.6789 0 .0157.0007.0307.0013.0451.0006.0131.0012.0256.0012.0376l2.5595-1.4158c-.2662-.218-.6069-.3458-.9825-.3458z"/></g></g></svg>

<svg width="94" height="27" viewBox="0 0 94 27" fill="none" xmlns="http://www.w3.org/2000/svg">
<path d="M14.7202 13.0761C14.556 13.5347 14.5287 14.0684 14.6406 14.6247L14.6655 14.75L19.3716 12.0112C18.5657 11.0389 17.1553 10.9036 16.0982 11.495C15.4789 11.8408 14.964 12.4021 14.7202 13.0761Z" fill="#001B3C"/>
<path fill-rule="evenodd" clip-rule="evenodd" d="M0 0.837891H25.8089V26.8379H0V0.837891ZM18.2498 17.0252C18.8169 16.8949 20.1551 16.4138 20.5232 14.7074L22.4584 15.0833C22.053 17.0403 20.6153 18.5237 18.6876 18.9622C18.307 19.0474 17.9165 19.0925 17.5309 19.0925C15.9813 19.0925 14.5337 18.3784 13.6581 17.1806C13.1656 16.5091 12.8423 15.7247 12.6955 14.9254C12.5288 17.361 10.718 19.0925 8.26052 19.0925C5.67118 19.0925 3.79073 17.1831 3.79073 14.5545V9.55551H5.79554V14.5545C5.79554 16.0279 6.85516 17.1405 8.26052 17.1405C9.65594 17.1405 10.7081 16.0279 10.7081 14.5545V9.55551H12.7129V12.9559C12.7527 12.7654 12.8049 12.58 12.8696 12.3996C12.9119 12.2793 12.9616 12.159 13.0139 12.0437C13.2999 11.4148 13.7253 10.8535 14.2401 10.3975C14.8396 9.86622 15.5734 9.4653 16.3519 9.27987C17.8468 8.92405 19.4711 9.40015 20.5879 10.4426C21.2172 11.0314 21.6202 11.7831 21.9211 12.5599L15.4988 16.2986C16.0136 16.8123 16.7499 17.1079 17.5284 17.1079C17.7697 17.1079 18.011 17.0804 18.2498 17.0252Z" fill="#001B3C"/>
<path d="M31.5771 9.50298V4.38367H33.3307V9.50298C33.3307 10.4326 33.9948 11.1267 34.8704 11.1267C35.7459 11.1267 36.3976 10.4351 36.3976 9.50298V4.38367H38.1512V9.50298C38.1512 11.4249 36.7533 12.8432 34.8704 12.8432C32.975 12.8432 31.5771 11.4249 31.5771 9.50298Z" fill="#001B3C"/>
<path d="M44.9964 12.7379V9.42029C44.9964 7.77399 44.0985 6.75915 42.6285 6.75664C41.9768 6.75664 41.3624 7.06736 41.0415 7.56852V6.87692H39.3725V12.7354H41.0415V9.09704C41.2803 8.69111 41.7405 8.428 42.2031 8.428C42.8896 8.428 43.3274 8.89408 43.3274 9.70595V12.7379H44.9964Z" fill="#001B3C"/>
<path d="M47.8395 12.7379H46.1705V6.87692H47.8395V12.7379Z" fill="#001B3C"/>
<path d="M48.0186 5.05271C48.0186 5.61401 47.5559 6.07758 47.0012 6.07758C46.4466 6.07758 45.9814 5.6115 45.9814 5.05271C45.9814 4.50395 46.4441 4.03787 47.0012 4.03787C47.5584 4.03787 48.0186 4.50395 48.0186 5.05271Z" fill="#001B3C"/>
<path d="M48.5285 6.87692L50.9437 12.7379H52.3665L54.7693 6.87692H52.946L51.6551 10.4452L50.3393 6.87692H48.5285Z" fill="#001B3C"/>
<path fill-rule="evenodd" clip-rule="evenodd" d="M60.5748 10.2071H56.3935C56.5477 11.0065 57.0925 11.4249 57.8859 11.4249C58.4058 11.4249 58.953 11.1869 59.1545 10.8285L60.4579 11.6279C60.0325 12.4022 59.06 12.8557 57.8511 12.8557C56.1448 12.8557 54.7942 11.5201 54.7942 9.77611C54.7942 8.06967 56.1199 6.75664 57.8138 6.75664C59.3883 6.75664 60.6221 7.98448 60.6221 9.54809C60.6221 9.75356 60.6096 9.97908 60.5748 10.2071ZM58.9505 9.13213C58.8784 8.54828 58.3461 8.11728 57.7292 8.11728C57.0303 8.11728 56.5676 8.49816 56.4134 9.13213H58.9505Z" fill="#001B3C"/>
<path d="M65.2411 8.44304L65.3356 6.8669C65.159 6.79423 64.9202 6.75915 64.6242 6.75664C64.1392 6.75664 63.5099 7.06736 63.2263 7.56852V6.87692H61.5573V12.7379H63.2263V9.19477C63.5124 8.62345 64.1168 8.31273 64.4949 8.31273C64.7312 8.31273 65.0172 8.36035 65.2411 8.44304Z" fill="#001B3C"/>
<path d="M65.5023 12.1165L65.9997 10.9463C66.5445 11.3522 67.2559 11.5677 67.9648 11.5677C68.4871 11.5677 68.8179 11.3648 68.8179 11.0916C68.8131 10.7415 68.331 10.6309 67.7447 10.4964C66.8333 10.2874 65.6701 10.0206 65.6565 8.70614C65.644 7.60861 66.6166 6.76166 67.9896 6.76166C68.808 6.76166 69.6238 6.96462 70.2059 7.4307L69.7308 8.64851C69.2806 8.30271 68.5468 8.0396 67.9175 8.0396C67.4921 8.0396 67.2061 8.24257 67.2061 8.50568C67.2109 8.83461 67.6889 8.9655 68.2739 9.12571C69.1952 9.37802 70.382 9.70305 70.4049 10.9889C70.4049 12.0739 69.4572 12.8632 68.1065 12.8632C67.1141 12.8557 66.2012 12.6177 65.5023 12.1165Z" fill="#001B3C"/>
<path d="M71.3078 12.7379H72.9768V6.87692H71.3078V12.7379Z" fill="#001B3C"/>
<path d="M72.1361 6.07758C72.6908 6.07758 73.1534 5.61401 73.1534 5.05271C73.1534 4.50395 72.6932 4.03787 72.1361 4.03787C71.5789 4.03787 71.1162 4.50395 71.1162 5.05271C71.1162 5.6115 71.5789 6.07758 72.1361 6.07758Z" fill="#001B3C"/>
<path d="M36.6837 14.8654V16.5593H33.3556V18.0627H36.318V19.7566H33.3556V21.5232H36.6837V23.2171H31.6045V14.8654H36.6837Z" fill="#001B3C"/>
<path d="M43.2229 23.2171V17.3586H41.5539V20.9995C41.3052 21.4054 40.8425 21.656 40.3923 21.656C39.7058 21.656 39.268 21.2025 39.268 20.3906V17.3586H37.599V20.6637C37.599 22.3226 38.4969 23.3374 39.967 23.3374C40.6062 23.3374 41.2231 23.0267 41.5539 22.5255V23.2171H43.2229Z" fill="#001B3C"/>
<path d="M48.1753 17.3461L48.0808 18.9222C47.8569 18.8395 47.5709 18.7919 47.3346 18.7919C46.9565 18.7919 46.352 19.1026 46.066 19.674V23.2171H44.397V17.3586H46.066V18.0502C46.3496 17.549 46.9789 17.2383 47.4639 17.2383C47.7599 17.2383 47.9962 17.2734 48.1753 17.3461Z" fill="#001B3C"/>
<path fill-rule="evenodd" clip-rule="evenodd" d="M51.3268 23.3349C53.0306 23.3349 54.3464 22.0344 54.3464 20.2929C54.3464 18.5514 53.0306 17.2383 51.3268 17.2383C49.6105 17.2383 48.3071 18.5514 48.3071 20.2929C48.3071 22.0344 49.6105 23.3349 51.3268 23.3349ZM51.3268 21.7237C50.5333 21.7237 49.9413 21.1048 49.9413 20.2929C49.9413 19.4585 50.5333 18.8496 51.3268 18.8496C52.1078 18.8496 52.7122 19.4585 52.7122 20.2929C52.7122 21.1022 52.1078 21.7237 51.3268 21.7237Z" fill="#001B3C"/>
<path fill-rule="evenodd" clip-rule="evenodd" d="M58.6695 17.2383C57.9357 17.2383 57.2368 17.5716 56.9507 18.0502V17.3586H55.2817V25.1516H56.9507V22.5255C57.2343 23.0016 57.9332 23.3374 58.6695 23.3374C60.1868 23.3374 61.3707 21.9768 61.3707 20.2829C61.3707 18.5864 60.1868 17.2383 58.6695 17.2383ZM58.2914 21.7262C57.4979 21.7262 56.9059 21.1048 56.9059 20.2954C56.9059 19.461 57.4979 18.8521 58.2914 18.8521C59.0724 18.8521 59.6769 19.461 59.6769 20.2954C59.6769 21.1048 59.0724 21.7262 58.2914 21.7262Z" fill="#001B3C"/>
<path fill-rule="evenodd" clip-rule="evenodd" d="M78.342 7.56852V4.38367H80.0111V12.7329H78.342V12.0413C78.0585 12.5199 77.3595 12.8532 76.6258 12.8532C75.1085 12.8532 73.912 11.4926 73.912 9.79866C73.912 8.10475 75.1085 6.75664 76.6258 6.75664C77.3471 6.75664 78.0585 7.09242 78.342 7.56852ZM75.6059 9.8137C75.6059 10.6231 76.1979 11.2445 76.9914 11.2445C77.7724 11.2445 78.3769 10.6256 78.3769 9.8137C78.3769 8.97927 77.7724 8.37037 76.9914 8.37037C76.1979 8.37037 75.6059 8.97927 75.6059 9.8137Z" fill="#001B3C"/>
<path fill-rule="evenodd" clip-rule="evenodd" d="M85.3067 6.87692V7.56852C85.0231 7.09242 84.3117 6.75664 83.5904 6.75664C82.0731 6.75664 80.8767 8.10475 80.8767 9.79866C80.8767 11.4926 82.0731 12.8532 83.5904 12.8532C84.3242 12.8532 85.0231 12.5199 85.3067 12.0413V12.7329H86.9757V6.87692H85.3067ZM83.9585 11.2445C83.165 11.2445 82.5731 10.6231 82.5731 9.8137C82.5731 8.97927 83.165 8.37037 83.9585 8.37037C84.7396 8.37037 85.344 8.97927 85.344 9.8137C85.344 10.6256 84.7396 11.2445 83.9585 11.2445Z" fill="#001B3C"/>
<path fill-rule="evenodd" clip-rule="evenodd" d="M92.331 7.56852V4.38367H94V12.7329H92.331V12.0413C92.0474 12.5199 91.3485 12.8532 90.6147 12.8532C89.0974 12.8532 87.901 11.4926 87.901 9.79866C87.901 8.10475 89.0974 6.75664 90.6147 6.75664C91.336 6.75664 92.0474 7.09242 92.331 7.56852ZM89.5949 9.80869C89.5949 10.6181 90.1869 11.2395 90.9803 11.2395C91.7639 11.2395 92.3683 10.6181 92.3658 9.80869C92.3658 8.97426 91.7614 8.36536 90.9803 8.36536C90.1869 8.36536 89.5949 8.97426 89.5949 9.80869Z" fill="#001B3C"/>
<path fill-rule="evenodd" clip-rule="evenodd" d="M72.8848 17.3586V18.0502C72.6012 17.5741 71.8898 17.2383 71.1685 17.2383C69.6512 17.2383 68.4548 18.5864 68.4548 20.2804C68.4548 21.9743 69.6512 23.3349 71.1685 23.3349C71.9023 23.3349 72.6012 23.0016 72.8848 22.523V23.2146H74.5538V17.3586H72.8848ZM71.5341 21.7262C70.7407 21.7262 70.1487 21.1048 70.1487 20.2954C70.1487 19.461 70.7407 18.8521 71.5341 18.8521C72.3152 18.8521 72.9196 19.461 72.9196 20.2954C72.9196 21.1048 72.3152 21.7262 71.5341 21.7262Z" fill="#001B3C"/>
<path fill-rule="evenodd" clip-rule="evenodd" d="M64.9899 21.9567C65.7386 21.9567 66.4052 21.4606 66.5793 20.7389L67.9424 21.0371C67.6364 22.4053 66.4226 23.3449 64.9899 23.3449C63.3009 23.3449 62.02 22.0419 62.02 20.2929C62.02 18.5438 63.3009 17.2283 64.9899 17.2283C66.3082 17.2283 67.3902 18.0427 67.7906 19.2405L66.542 19.9696V19.9671L63.8929 21.5082C64.1715 21.7888 64.5546 21.9567 64.9899 21.9567ZM64.9924 18.6115C64.087 18.6115 63.4129 19.3206 63.4129 20.2904C63.4129 20.3061 63.4136 20.3211 63.4142 20.3355C63.4148 20.3486 63.4154 20.3611 63.4154 20.3731L65.9749 18.9573C65.7087 18.7393 65.368 18.6115 64.9924 18.6115Z" fill="#001B3C"/>
</svg>
